X:10927
%5106
T:Father Fielding's Favorite
S:Trad, arr. Paddy O'Brien
R:jig
E:12
I:speed 350
M:6/8
K:Cmaj
A,/2G,/2|~C2D EFD|ECB, CEF|GEC B,DC|B,G,G, G,A,B,|\
~C2D EFD|EDC BAG|FDC B,CD|ECB, C2:|\
E/2G/2|cBc dBG|FEF GEC|~c2e dBG|FEF GAB|\
cAc BGB|AFA cBA|GAG FED|ECA, C2
%Warning : No repeat expected, found :|
:|**
\vfill\eject


